X:344
T:Robertson's Rant
R:strathspey
C:Struan Robertson
S:Susie Petrov - Her Book of Music
M:C
L:1/8
K:EDor
P: A
F |: \
"Bm" B2 d>ef>e  f/g/a  | "A" A2 c>B  A>ce>c  | "Bm" B2 d>e f>e f<a | "F#m" g/f/e a>c "Bm" B2 fF :|
"Bm" d>fB>f     d>fB>f | "A" c<e A>e c<e A>e | "Bm" d>fB>f d>fB>f  | "A"c<A e>c   "Bm" B2 f2  |
"Bm" d>fB>f "E" d>fB>f | "A" c<e A>e c<e A>e | "Bm" f/g/a e>c "A" d>B c<A | "G" d<f "A" e>c "Bm" B2 f2 ||
P:B
|: \
"D"  d>ef>g     a>fd>f    | "A" e>A c<A c/e/A c<A | "D"  d>ef>g a>f d<f | "A"  e>cA>c  "Bm" B2 f2 :|
"Bm" B2 B>c     d>c B/c/d | "A" c>BA>c e>A c<A    | "Bm" B2 B>c d>c B/c/d  | "A"  c<A e>c "Bm" B2 f2  |
"Bm" B2 B>c "E" d>fd>f    | "A" c<e A>e a>e c<A   | "Bm" f>de>c "A" d<Bc<A | "G" d>f"A"e>c "Bm" B2 f2 |]
